X: 773
M: C|
L: 1/8
K: Gm
[|\
g4 d3e | dcBA G2A2 | B3B c2d2 | e2dc d2=e^f |\
g4 d3e | dcBA G2A2 | B2 (B/c/d) (cB) (AG) | G4 |]
[|\
b4 f3g | fedc B2d2 | f4 c3d | cB AG F2A2 |\

